X: 3352
T: The Boolonzie
%R: march
B: Niel Gow & Sons "A Third Collection of Strathspey Reels, etc." v.3 p.35 #2
Z: 2022 John Chambers <jc:trillian.mit.edu>
M: 2/4
L: 1/8
K: D
% - - - - - - - - - -
V: 1 staves=2
A |\
Ad.d-d | {c}d2dd | (ef)ce | {d}c2(.B.A) |\
(Ad)(.d.d) | {c}d2dd | (eg)ce | d2d :|
|: "_8va alto ad lib"A |\
FEFG | (3ABA DE | {F}F>EFG | A2D2 |\
!p!{g}F>EFG | A>BAG | {G}F>EFG | A2D :|
% - - - - - - - - - -
% Voice 2 preserves the staff layout in the book.
V: 2 clef=bass middle=d
z | D2d2 | f2d2 | g2e2 | a2g2 | f2d2 | f2f2 | g2a2 | d2D :||: "_8va alto ad lib"z | d2d2 |
D2d2 | D2d2 | f2d2 | !p!d2d2 | d2c2 | d2A2 D2d :|


